svgs/thin/square-q.svg

<svg xmlns="http://www.w3.org/2000/svg" viewBox="0 0 448 512"><!-- Font Awesome Pro 6.0.0-alpha2 by @fontawesome - https://fontawesome.com License - https://fontawesome.com/license (Commercial License) --><path d="M384 32H64C28.654 32 0 60.654 0 96V416C0 451.346 28.654 480 64 480H384C419.346 480 448 451.346 448 416V96C448 60.654 419.346 32 384 32ZM432 416C432 442.467 410.467 464 384 464H64C37.533 464 16 442.467 16 416V96C16 69.533 37.533 48 64 48H384C410.467 48 432 69.533 432 96V416ZM224 128C153.406 128 96 185.422 96 256S153.406 384 224 384C256.41 384 285.703 371.508 308.273 351.586L338.344 381.656C339.906 383.219 341.938 384 344 384S348.094 383.219 349.656 381.656C352.781 378.531 352.781 373.469 349.656 370.344L319.584 340.271C339.508 317.697 352 288.406 352 256C352 185.422 294.594 128 224 128ZM308.271 328.959L269.656 290.344C266.531 287.219 261.469 287.219 258.344 290.344S255.219 298.531 258.344 301.656L296.959 340.271C277.303 357.312 251.99 368 224 368C162.25 368 112 317.75 112 256S162.25 144 224 144S336 194.25 336 256C336 283.99 325.312 309.303 308.271 328.959Z"/></svg>

<svg xmlns="http://www.w3.org/2000/svg" viewBox="0 0 448 512"><!--! Font Awesome Pro 6.3.0 by @fontawesome - https://fontawesome.com License - https://fontawesome.com/license (Commercial License) Copyright 2023 Fonticons, Inc. --><path d="M384 32H64C28.65 32 0 60.65 0 96v320c0 35.35 28.65 64 64 64h320c35.35 0 64-28.65 64-64V96C448 60.65 419.3 32 384 32zM432 416c0 26.47-21.53 48-48 48H64c-26.47 0-48-21.53-48-48V96c0-26.47 21.53-48 48-48h320c26.47 0 48 21.53 48 48V416zM224 128C153.4 128 96 185.4 96 256s57.41 128 128 128c32.41 0 61.7-12.49 84.27-32.41l30.07 30.07C339.9 383.2 341.9 384 344 384s4.094-.7813 5.656-2.344c3.125-3.125 3.125-8.188 0-11.31l-30.07-30.07C339.5 317.7 352 288.4 352 256C352 185.4 294.6 128 224 128zM308.3 328.1l-38.62-38.62c-3.125-3.125-8.188-3.125-11.31 0s-3.125 8.188 0 11.31l38.62 38.62C277.3 357.3 251.1 368 224 368c-61.75 0-112-50.25-112-112S162.3 144 224 144s112 50.25 112 112C336 283.1 325.3 309.3 308.3 328.1z"/></svg>
